packages/core/src/svgs/index.svg

<svg width="24" height="24" viewBox="0 0 24 24" fill="none" xmlns="http://www.w3.org/2000/svg">
<g clip-path="url(#clip0_31_11809)">
<path d="M0 0H24V24H0V0Z" fill="url(#paint0_linear_31_11809)"/>
<path fill-rule="evenodd" clip-rule="evenodd" d="M12.0002 18.4284C15.7888 18.4284 18.8574 14.5756 18.8574 10.9327C18.8574 7.28986 15.7888 5.57129 12.0002 5.57129C8.21164 5.57129 5.14307 7.277 5.14307 10.9327C5.14307 15.0941 8.21164 18.4284 12.0002 18.4284ZM16.1231 12.2356C16.3307 12.2339 16.5361 12.1913 16.7273 12.1103C16.9185 12.0293 17.0919 11.9114 17.2376 11.7633C17.3832 11.6153 17.4983 11.44 17.5762 11.2475C17.6541 11.0549 17.6933 10.849 17.6916 10.6413C17.6933 10.4336 17.6541 10.2276 17.5762 10.0351C17.4983 9.8426 17.3832 9.66731 17.2376 9.51927C17.0919 9.37122 16.9185 9.25332 16.7273 9.17229C16.5361 9.09126 16.3307 9.04868 16.1231 9.047C15.5402 9.047 15.0302 9.37272 14.7602 9.857V9.85272L14.7474 9.88272C14.0294 11.4751 13.0551 12.9388 11.8631 14.2156C11.3916 13.8213 10.0288 11.4899 9.37735 10.3156C9.30717 9.95961 9.11607 9.63885 8.83645 9.40766C8.55683 9.17646 8.20588 9.04905 7.84307 9.047C7.42439 9.05153 7.02459 9.2219 6.73135 9.52077C6.4381 9.81964 6.27535 10.2226 6.27878 10.6413C6.27535 11.06 6.4381 11.4629 6.73135 11.7618C7.02459 12.0607 7.42439 12.231 7.84307 12.2356C8.24592 12.2356 8.6145 12.0813 8.89307 11.8284C9.82307 13.4999 10.9031 15.4113 11.9616 15.4284C12.8102 15.4413 14.3359 13.0799 15.0516 11.8027C15.3399 12.0788 15.7239 12.2324 16.1231 12.2313V12.2356Z" fill="white"/>
</g>
<defs>
<linearGradient id="paint0_linear_31_11809" x1="4.46571" y1="4.16143" x2="29.2071" y2="32.58" gradientUnits="userSpaceOnUse">
<stop stop-color="#1A1E21"/>
<stop offset="1" stop-color="#06060A"/>
</linearGradient>
<clipPath id="clip0_31_11809">
<rect width="24" height="24" fill="white"/>
</clipPath>
</defs>
</svg>

<svg xmlns="http://www.w3.org/2000/svg" width="24" height="24" fill="none" viewBox="0 0 24 24"><g clip-path="url(#a)"><path fill="url(#b)" d="M0 0h24v24H0z"/><path fill="#fff" fill-rule="evenodd" d="M12 18.428c3.789 0 6.857-3.852 6.857-7.495S15.79 5.57 12 5.57c-3.788 0-6.857 1.706-6.857 5.362 0 4.161 3.069 7.495 6.857 7.495m4.123-6.192a1.583 1.583 0 0 0 1.569-1.595 1.58 1.58 0 0 0-1.569-1.594c-.583 0-1.093.326-1.363.81v-.004l-.013.03a16 16 0 0 1-2.884 4.333c-.471-.395-1.834-2.726-2.486-3.9a1.57 1.57 0 0 0-1.534-1.269 1.58 1.58 0 0 0-1.564 1.594 1.58 1.58 0 0 0 1.564 1.595c.403 0 .771-.155 1.05-.408.93 1.672 2.01 3.583 3.069 3.6.848.013 2.374-2.348 3.09-3.625.288.276.672.43 1.071.428z" clip-rule="evenodd"/></g><defs><linearGradient id="b" x1="4.466" x2="29.207" y1="4.161" y2="32.58" gradientUnits="userSpaceOnUse"><stop stop-color="#1A1E21"/><stop offset="1" stop-color="#06060A"/></linearGradient><clipPath id="a"><path fill="#fff" d="M0 0h24v24H0z"/></clipPath></defs></svg>
